public/assets/icons/design-system.svg

<svg fill="none" height="32" viewBox="0 0 32 32" width="32" xmlns="http://www.w3.org/2000/svg"><path d="m16.3629 30.4995h-.7262c-.0654-.0388-.1307-.0784-.1975-.1158-1.6809-.9597-3.3625-1.9188-5.0418-2.8807-.0698-.0403-.1219-.0491-.1968-.0044-.32241.1912-.65064.3729-.97521.5612-.32897.1912-.65795.1949-.98839.0066-1.74766-.9971-3.49533-1.995-5.24227-2.9928-.3253-.1861-.49419-.4675-.49419-.8426 0-2.0096-.00073-4.0185 0-6.0281 0-.3693.16302-.6499.48318-.8359.29666-.1722.59259-.3444.89366-.5085.08665-.0476.11308-.1018.11308-.1978-.00293-1.9855-.0022-3.9702-.00147-5.9556 0-.0762 0-.1539.01102-.2286.0492-.3275.23792-.55095.52136-.71286 1.71756-.97661 3.43292-1.95761 5.15048-2.93422.07711-.04396.10501-.09011.10354-.17876-.00514-.3905-.0022-.78099-.0022-1.17149 0-.37511.16081-.66084.48611-.8462 1.7506-1.00005 3.5027-1.99863 5.2548-2.99649.3201-.18242.6454-.18169.9678-.00146.2673.14946.5331.30331.7989.45497 1.4642.8352 2.927 1.67261 4.3934 2.50415.373.211.5618.51285.5515.94437-.0088.36632.0029.73264-.0044 1.09896-.0022.10403.0345.15532.1219.20514 1.686.95829 3.3675 1.9261 5.0579 2.87707.4223.23737.6154.56042.6125 1.04552-.0111 1.9649-.0037 3.9298-.0074 5.8948 0 .1033.0323.1575.1219.2058.2761.1502.5449.3143.8217.4638.3782.2051.5515.515.55.9451-.0051 1.9613-.0051 3.9218 0 5.8831.0015.43-.1748.7333-.5485.9458-1.7359.9861-3.4675 1.9789-5.2012 2.9679-.3216.1832-.6462.1773-.9671-.0058-.326-.1861-.6528-.3693-.9751-.5605-.0808-.0476-.1388-.0447-.2189.0015-1.0699.6146-2.1427 1.2249-3.2133 1.8374-.6719.3839-1.3423.7707-2.0128 1.1561zm-10.51315-14.7737c.05948-.0307.09839-.0498.13584-.071.74313-.4228 1.48626-.8448 2.22791-1.2704.3422-.1964.67778-.1978 1.02144-.0022 1.73296.9905 3.46666 1.9788 5.20116 2.9664.3532.2008.5191.4997.5184.9026-.0022 1.9767-.0022 3.9541 0 5.9307 0 .4089-.1711.707-.5287.9093-.713.4022-1.4224.8102-2.1332 1.2161-.0367.0205-.0712.044-.1167.0718.0345.022.0543.0359.0749.0476 1.2219.6975 2.4445 1.395 3.6657 2.0947.0683.0395.1145.0249.1747-.0096 1.2072-.6908 2.4152-1.381 3.6231-2.0711.0309-.0176.0602-.0381.1036-.0652-.0478-.0286-.0837-.0521-.1212-.0733-.7005-.4-1.3981-.8037-2.1023-1.1964-.376-.2095-.5515-.5165-.5508-.9451.0044-1.9605.0044-3.9218 0-5.8823-.0007-.4286.1726-.7349.5471-.9473 1.708-.9686 3.4146-1.9408 5.1167-2.9196.3855-.2213.7453-.2257 1.1286-.0007.7204.422 1.4488.8293 2.1736 1.2432.0404.0228.0815.044.1388.074 0-.0578 0-.0937 0-.1289 0-1.4455-.0007-2.891.0022-4.3365 0-.0894-.0316-.1348-.1072-.1773-1.2373-.7026-2.4739-1.40885-3.7105-2.11365-.0301-.01685-.0624-.03003-.1094-.05275v.14507c0 .79344-.0044 1.58613.0015 2.37963.0029.4154-.1726.7121-.5332.9172-1.7212.9788-3.441 1.9591-5.1578 2.9452-.3657.2103-.7093.2096-1.0735 0-1.7169-.9854-3.4366-1.9671-5.1579-2.9452-.36199-.2058-.53455-.5033-.53161-.918.00587-.7971.00146-1.59418.00146-2.39129 0-.04103 0-.08205 0-.13773-.04479.02124-.06682.0293-.08738.04102-1.25054.71286-2.50034 1.4272-3.75235 2.1378-.07343.0418-.08591.0909-.08591.1649.00147 1.4455.00147 2.891.00147 4.3365v.1311zm9.21345-2.7876c.0044-.0477.0081-.0704.0081-.0938 0-1.2477 0-2.4954.0022-3.74307 0-.08645-.0441-.11869-.1065-.15385-1.0684-.60882-2.1354-1.21838-3.2031-1.8272-.0367-.02125-.0749-.03883-.1211-.06301-.0037.04103-.0074.06447-.0074.08865 0 1.24768 0 2.49536-.0022 3.74308 0 .0776.0331.1128.0947.1472.7608.4323 1.5193.866 2.2793 1.2997.3459.1978.6925.3949 1.0567.603zm3.8427 6.8487v.1443c0 1.2198.0014 2.4397-.0022 3.6595 0 .0938.0293.1421.1101.1883 1.0699.6066 2.1369 1.2169 3.2053 1.8265.036.0205.0734.0373.1204.0615.0022-.0447.0044-.0681.0044-.0923 0-1.244-.0007-2.488.0022-3.7321 0-.0828-.0338-.1201-.0991-.1575-1.0721-.6103-2.1435-1.222-3.2156-1.8338-.0338-.019-.0697-.0351-.1255-.0637zm-11.11609 5.8801c.00293-.0476.00587-.0755.00587-.1033 0-1.2396-.00073-2.4792.00294-3.7189 0-.0893-.03966-.1267-.10721-.1648-1.06843-.6081-2.13612-1.2184-3.20382-1.8272-.03598-.0205-.07416-.0374-.12189-.0616-.00294.0433-.00588.0667-.00588.0902 0 1.2476 0 2.4953-.0022 3.743 0 .0791.03672.1121.09693.1458 1.0721.6103 2.14273 1.222 3.21409 1.8331.03452.0197.06976.0366.12117.0644zm9.13779-12.7347c.0492-.0235.0778-.0344.105-.0498 1.0817-.6176 2.1618-1.236 3.2442-1.8507.0712-.0403.0889-.0872.0889-.1633-.0022-1.23161-.0015-2.46244-.0015-3.69401 0-.03443-.0051-.06813-.0088-.11502-.0433.02198-.0756.03663-.1058.05421-1.075.61249-2.1493 1.22571-3.2251 1.836-.0727.04102-.0991.08718-.0991.1707.0029 1.23152.0015 2.46242.0015 3.69392v.118zm-7.27264 12.7347c.05287-.0271.08518-.0418.11529-.0593 1.07135-.6111 2.14195-1.2235 3.21485-1.8316.0815-.0462.1101-.0953.1094-.1883-.0037-1.2191-.0022-2.439-.0022-3.6581 0-.0417-.0037-.0835-.0066-.137-.0397.0191-.0654.0293-.0889.0425-1.0853.6184-2.1706 1.2382-3.25739 1.8543-.0727.041-.08592.0909-.08592.1649.00147 1.2271.00147 2.455.00147 3.6822v.1297zm14.54824 0c.0565-.0293.0918-.0462.1256-.0659 1.0677-.6089 2.1346-1.2191 3.2038-1.825.0808-.0462.1101-.0945.1101-.1876-.0036-1.2191-.0022-2.4382-.0022-3.6573v-.1429c-.0536.0271-.0859.041-.1167.0586-1.0751.6125-2.1494 1.2257-3.2251 1.836-.0735.0418-.0977.0887-.097.1707.0022 1.2316.0015 2.4624.0015 3.694zm-12.0663-7.4854c-.0411-.0263-.069-.0468-.0991-.0637-1.0677-.6096-2.13611-1.2176-3.20233-1.8301-.08078-.0462-.13805-.0462-.21883 0-1.01041.5802-2.0223 1.1561-3.03418 1.7334-.08665.0491-.17183.0996-.27023.156.03304.0228.05067.0367.07049.0484 1.08899.6213 2.17798 1.2418 3.2655 1.8653.06976.0403.11602.0205.17477-.0132 1.06769-.6103 2.13541-1.2191 3.20311-1.8279.0337-.0191.0661-.041.1101-.0689zm.448-12.73833c.0301.02198.0426.03297.0558.0403 1.0956.62494 2.1919 1.24914 3.286 1.87628.0669.0381.1102.01832.1645-.01245 1.0707-.61176 2.1428-1.22204 3.2134-1.83306.033-.01832.0631-.04103.1035-.06814-.0396-.02491-.0661-.04322-.0932-.05861-1.0677-.60955-2.1354-1.21764-3.2016-1.83013-.0845-.04835-.1454-.04909-.2299 0-.7681.44251-1.5391.88063-2.3094 1.32021-.3246.18536-.6499.37145-.9906.5656zm14.0988 12.73983c-.0404-.0256-.069-.0461-.0999-.0637-1.0676-.6096-2.1361-1.2184-3.2016-1.8309-.0807-.0461-.138-.0469-.2188 0-1.017.5847-2.0362 1.1649-3.0555 1.7459-.0793.0454-.1579.0916-.2489.1443.0404.0264.0653.0454.0918.0601 1.078.6154 2.1574 1.2301 3.2339 1.8477.0727.0418.1219.0286.1858-.0081 1.0669-.6102 2.1354-1.2183 3.2038-1.8279.0338-.019.0661-.041.1094-.0681z" fill="#fff"/></svg>

<svg width="32" height="32" viewBox="0 0 32 32" fill="none" xmlns="http://www.w3.org/2000/svg">
<path d="M16.3629 30.4995H15.6367C15.5713 30.4607 15.506 30.4211 15.4392 30.3837C13.7583 29.424 12.0767 28.4649 10.3974 27.503C10.3276 27.4627 10.2755 27.4539 10.2006 27.4986C9.87819 27.6898 9.54996 27.8715 9.22539 28.0598C8.89642 28.251 8.56744 28.2547 8.237 28.0664C6.48934 27.0693 4.74167 26.0714 2.99473 25.0736C2.66943 24.8875 2.50054 24.6061 2.50054 24.231C2.50054 22.2214 2.49981 20.2125 2.50054 18.2029C2.50054 17.8336 2.66356 17.553 2.98372 17.367C3.28038 17.1948 3.57631 17.0226 3.87738 16.8585C3.96403 16.8109 3.99046 16.7567 3.99046 16.6607C3.98753 14.6752 3.98826 12.6905 3.98899 10.7051C3.98899 10.6289 3.98899 10.5512 4.00001 10.4765C4.04921 10.149 4.23793 9.92555 4.52137 9.76364C6.23893 8.78703 7.95429 7.80603 9.67185 6.82942C9.74896 6.78546 9.77686 6.73931 9.77539 6.65066C9.77025 6.26016 9.77319 5.86967 9.77319 5.47917C9.77319 5.10406 9.934 4.81833 10.2593 4.63297C12.0099 3.63292 13.762 2.63434 15.5141 1.63648C15.8342 1.45406 16.1595 1.45479 16.4819 1.63502C16.7492 1.78448 17.015 1.93833 17.2808 2.08999C18.745 2.92519 20.2078 3.7626 21.6742 4.59414C22.0472 4.80514 22.236 5.10699 22.2257 5.53851C22.2169 5.90483 22.2286 6.27115 22.2213 6.63747C22.2191 6.7415 22.2558 6.79279 22.3432 6.84261C24.0292 7.8009 25.7107 8.76871 27.4011 9.71968C27.8234 9.95705 28.0165 10.2801 28.0136 10.7652C28.0025 12.7301 28.0099 14.695 28.0062 16.66C28.0062 16.7633 28.0385 16.8175 28.1281 16.8658C28.4042 17.016 28.673 17.1801 28.9498 17.3296C29.328 17.5347 29.5013 17.8446 29.4998 18.2747C29.4947 20.236 29.4947 22.1965 29.4998 24.1578C29.5013 24.5878 29.325 24.8911 28.9513 25.1036C27.2154 26.0897 25.4838 27.0825 23.7501 28.0715C23.4285 28.2547 23.1039 28.2488 22.783 28.0657C22.457 27.8796 22.1302 27.6964 21.8079 27.5052C21.7271 27.4576 21.6691 27.4605 21.589 27.5067C20.5191 28.1213 19.4463 28.7316 18.3757 29.3441C17.7038 29.728 17.0334 30.1148 16.3629 30.5002V30.4995ZM5.84975 15.7258C5.90923 15.6951 5.94814 15.676 5.98559 15.6548C6.72872 15.232 7.47185 14.81 8.2135 14.3844C8.5557 14.188 8.89128 14.1866 9.23494 14.3822C10.9679 15.3727 12.7016 16.361 14.4361 17.3486C14.7893 17.5494 14.9552 17.8483 14.9545 18.2512C14.9523 20.2279 14.9523 22.2053 14.9545 24.1819C14.9545 24.5908 14.7834 24.8889 14.4258 25.0912C13.7128 25.4934 13.0034 25.9014 12.2926 26.3073C12.2559 26.3278 12.2214 26.3513 12.1759 26.3791C12.2104 26.4011 12.2302 26.415 12.2508 26.4267C13.4727 27.1242 14.6953 27.8217 15.9165 28.5214C15.9848 28.5609 16.031 28.5463 16.0912 28.5118C17.2984 27.821 18.5064 27.1308 19.7143 26.4407C19.7452 26.4231 19.7745 26.4026 19.8179 26.3755C19.7701 26.3469 19.7342 26.3234 19.6967 26.3022C18.9962 25.9022 18.2986 25.4985 17.5944 25.1058C17.2184 24.8963 17.0429 24.5893 17.0436 24.1607C17.048 22.2002 17.048 20.2389 17.0436 18.2784C17.0429 17.8498 17.2162 17.5435 17.5907 17.3311C19.2987 16.3625 21.0053 15.3903 22.7074 14.4115C23.0929 14.1902 23.4527 14.1858 23.836 14.4108C24.5564 14.8328 25.2848 15.2401 26.0096 15.654C26.05 15.6768 26.0911 15.698 26.1484 15.728C26.1484 15.6702 26.1484 15.6343 26.1484 15.5991C26.1484 14.1536 26.1477 12.7081 26.1506 11.2626C26.1506 11.1732 26.119 11.1278 26.0434 11.0853C24.8061 10.3827 23.5695 9.67645 22.3329 8.97165C22.3028 8.9548 22.2705 8.94162 22.2235 8.9189V9.06397C22.2235 9.85741 22.2191 10.6501 22.225 11.4436C22.2279 11.859 22.0524 12.1557 21.6918 12.3608C19.9706 13.3396 18.2508 14.3199 16.534 15.306C16.1683 15.5163 15.8247 15.5156 15.4605 15.306C13.7436 14.3206 12.0239 13.3389 10.3026 12.3608C9.94061 12.155 9.76805 11.8575 9.77099 11.4428C9.77686 10.6457 9.77245 9.84862 9.77245 9.05151C9.77245 9.01048 9.77245 8.96946 9.77245 8.91378C9.72766 8.93502 9.70563 8.94308 9.68507 8.9548C8.43453 9.66766 7.18473 10.382 5.93272 11.0926C5.85929 11.1344 5.84681 11.1835 5.84681 11.2575C5.84828 12.703 5.84828 14.1485 5.84828 15.594C5.84828 15.6299 5.84828 15.6658 5.84828 15.7251L5.84975 15.7258ZM15.0632 12.9382C15.0676 12.8905 15.0713 12.8678 15.0713 12.8444C15.0713 11.5967 15.0713 10.349 15.0735 9.10133C15.0735 9.01488 15.0294 8.98264 14.967 8.94748C13.8986 8.33866 12.8316 7.7291 11.7639 7.12028C11.7272 7.09903 11.689 7.08145 11.6428 7.05727C11.6391 7.0983 11.6354 7.12174 11.6354 7.14592C11.6354 8.3936 11.6354 9.64128 11.6332 10.889C11.6332 10.9666 11.6663 11.0018 11.7279 11.0362C12.4887 11.4685 13.2472 11.9022 14.0072 12.3359C14.3531 12.5337 14.6997 12.7308 15.0639 12.9389L15.0632 12.9382ZM18.9059 19.7869V19.9312C18.9059 21.151 18.9073 22.3709 18.9037 23.5907C18.9037 23.6845 18.933 23.7328 19.0138 23.779C20.0837 24.3856 21.1507 24.9959 22.2191 25.6055C22.2551 25.626 22.2925 25.6428 22.3395 25.667C22.3417 25.6223 22.3439 25.5989 22.3439 25.5747C22.3439 24.3307 22.3432 23.0867 22.3461 21.8426C22.3461 21.7598 22.3123 21.7225 22.247 21.6851C21.1749 21.0748 20.1035 20.4631 19.0314 19.8513C18.9976 19.8323 18.9617 19.8162 18.9059 19.7876V19.7869ZM7.78981 25.667C7.79274 25.6194 7.79568 25.5915 7.79568 25.5637C7.79568 24.3241 7.79495 23.0845 7.79862 21.8448C7.79862 21.7555 7.75896 21.7181 7.69141 21.68C6.62298 21.0719 5.55529 20.4616 4.48759 19.8528C4.45161 19.8323 4.41343 19.8154 4.3657 19.7912C4.36276 19.8345 4.35982 19.8579 4.35982 19.8814C4.35982 21.129 4.35982 22.3767 4.35762 23.6244C4.35762 23.7035 4.39434 23.7365 4.45455 23.7702C5.52665 24.3805 6.59728 24.9922 7.66864 25.6033C7.70316 25.623 7.7384 25.6399 7.78981 25.6677V25.667ZM16.9276 12.9323C16.9768 12.9088 17.0054 12.8979 17.0326 12.8825C18.1143 12.2649 19.1944 11.6465 20.2768 11.0318C20.348 10.9915 20.3657 10.9446 20.3657 10.8685C20.3635 9.63689 20.3642 8.40606 20.3642 7.17449C20.3642 7.14006 20.3591 7.10636 20.3554 7.05947C20.3121 7.08145 20.2798 7.0961 20.2496 7.11368C19.1746 7.72617 18.1003 8.33939 17.0245 8.94968C16.9518 8.9907 16.9254 9.03686 16.9254 9.12038C16.9283 10.3519 16.9269 11.5828 16.9269 12.8143C16.9269 12.8458 16.9269 12.8781 16.9269 12.9323H16.9276ZM9.65496 25.667C9.70783 25.6399 9.74014 25.6252 9.77025 25.6077C10.8416 24.9966 11.9122 24.3842 12.9851 23.7761C13.0666 23.7299 13.0952 23.6808 13.0945 23.5878C13.0908 22.3687 13.0923 21.1488 13.0923 19.9297C13.0923 19.888 13.0886 19.8462 13.0857 19.7927C13.046 19.8118 13.0203 19.822 12.9968 19.8352C11.9115 20.4536 10.8262 21.0734 9.73941 21.6895C9.66671 21.7305 9.65349 21.7804 9.65349 21.8544C9.65496 23.0815 9.65496 24.3094 9.65496 25.5366C9.65496 25.5725 9.65496 25.6084 9.65496 25.6663V25.667ZM24.2032 25.667C24.2597 25.6377 24.295 25.6208 24.3288 25.6011C25.3965 24.9922 26.4634 24.382 27.5326 23.7761C27.6134 23.7299 27.6427 23.6816 27.6427 23.5885C27.6391 22.3694 27.6405 21.1503 27.6405 19.9312V19.7883C27.5869 19.8154 27.5546 19.8293 27.5238 19.8469C26.4487 20.4594 25.3744 21.0726 24.2987 21.6829C24.2252 21.7247 24.201 21.7716 24.2017 21.8536C24.2039 23.0852 24.2032 24.316 24.2032 25.5476C24.2032 25.5791 24.2032 25.6113 24.2032 25.667ZM12.1369 18.1816C12.0958 18.1553 12.0679 18.1348 12.0378 18.1179C10.9701 17.5083 9.90169 16.9003 8.83547 16.2878C8.75469 16.2416 8.69742 16.2416 8.61664 16.2878C7.60623 16.868 6.59434 17.4439 5.58246 18.0212C5.49581 18.0703 5.41063 18.1208 5.31223 18.1772C5.34527 18.2 5.3629 18.2139 5.38272 18.2256C6.47171 18.8469 7.5607 19.4674 8.64822 20.0909C8.71798 20.1312 8.76424 20.1114 8.82299 20.0777C9.89068 19.4674 10.9584 18.8586 12.0261 18.2498C12.0598 18.2307 12.0922 18.2088 12.1362 18.1809L12.1369 18.1816ZM12.5849 5.44327C12.615 5.46525 12.6275 5.47624 12.6407 5.48357C13.7363 6.10851 14.8326 6.73271 15.9267 7.35985C15.9936 7.39795 16.0369 7.37817 16.0912 7.3474C17.1619 6.73564 18.234 6.12536 19.3046 5.51434C19.3376 5.49602 19.3677 5.47331 19.4081 5.4462C19.3685 5.42129 19.342 5.40298 19.3149 5.38759C18.2472 4.77804 17.1795 4.16995 16.1133 3.55746C16.0288 3.50911 15.9679 3.50837 15.8834 3.55746C15.1153 3.99997 14.3443 4.43809 13.574 4.87767C13.2494 5.06303 12.9241 5.24912 12.5834 5.44327H12.5849ZM26.6837 18.1831C26.6433 18.1575 26.6147 18.137 26.5838 18.1194C25.5162 17.5098 24.4477 16.901 23.3822 16.2885C23.3015 16.2424 23.2442 16.2416 23.1634 16.2885C22.1464 16.8732 21.1272 17.4534 20.1079 18.0344C20.0286 18.0798 19.95 18.126 19.859 18.1787C19.8994 18.2051 19.9243 18.2241 19.9508 18.2388C21.0288 18.8542 22.1082 19.4689 23.1847 20.0865C23.2574 20.1283 23.3066 20.1151 23.3705 20.0784C24.4374 19.4682 25.5059 18.8601 26.5743 18.2505C26.6081 18.2315 26.6404 18.2095 26.6837 18.1824V18.1831Z" fill="white"/>
</svg>
